svgs/regular/video-arrow-down-left.svg

<svg xmlns="http://www.w3.org/2000/svg" viewBox="0 0 576 512"><!--! Font Awesome Pro 6.6.0 by @fontawesome - https://fontawesome.com License - https://fontawesome.com/license (Commercial License) Copyright 2024 Fonticons, Inc. --><path d="M320 112c8.8 0 16 7.2 16 16l0 256c0 8.8-7.2 16-16 16L64 400c-8.8 0-16-7.2-16-16l0-256c0-8.8 7.2-16 16-16l256 0zM64 64C28.7 64 0 92.7 0 128L0 384c0 35.3 28.7 64 64 64l256 0c35.3 0 64-28.7 64-64l0-33 0-190 0-33c0-35.3-28.7-64-64-64L64 64zm464 84.6l0 214.7L416 313l0 52.6 104.3 46.9c5.1 2.3 10.6 3.5 16.2 3.5c21.8 0 39.5-17.7 39.5-39.5l0-241c0-21.8-17.7-39.5-39.5-39.5c-5.6 0-11.1 1.2-16.2 3.5L416 146.4l0 52.6 112-50.4zM232 352c13.3 0 24-10.7 24-24s-10.7-24-24-24l-54.1 0L281 201c9.4-9.4 9.4-24.6 0-33.9s-24.6-9.4-33.9 0l-103 103 0-54.1c0-13.3-10.7-24-24-24s-24 10.7-24 24l0 112c0 13.3 10.7 24 24 24l112 0z"/></svg>

<svg xmlns="http://www.w3.org/2000/svg" viewBox="0 0 576 512"><!--! Font Awesome Pro 6.4.2 by @fontawesome - https://fontawesome.com License - https://fontawesome.com/license (Commercial License) Copyright 2023 Fonticons, Inc. --><path d="M320 112c8.8 0 16 7.2 16 16V384c0 8.8-7.2 16-16 16H64c-8.8 0-16-7.2-16-16V128c0-8.8 7.2-16 16-16H320zM64 64C28.7 64 0 92.7 0 128V384c0 35.3 28.7 64 64 64H320c35.3 0 64-28.7 64-64V351 161 128c0-35.3-28.7-64-64-64H64zm464 84.6V363.4L416 313v52.6l104.3 46.9c5.1 2.3 10.6 3.5 16.2 3.5c21.8 0 39.5-17.7 39.5-39.5v-241c0-21.8-17.7-39.5-39.5-39.5c-5.6 0-11.1 1.2-16.2 3.5L416 146.4V199l112-50.4zM232 352c13.3 0 24-10.7 24-24s-10.7-24-24-24H177.9L281 201c9.4-9.4 9.4-24.6 0-33.9s-24.6-9.4-33.9 0l-103 103V216c0-13.3-10.7-24-24-24s-24 10.7-24 24V328c0 13.3 10.7 24 24 24H232z"/></svg>
